Newaita-dark/apps/256/gnome-power-statistics.svg

<?xml version="1.0" encoding="UTF-8"?>
<svg xmlns="http://www.w3.org/2000/svg" xmlns:xlink="http://www.w3.org/1999/xlink" width="256pt" height="256pt" viewBox="0 0 256 256" version="1.1">
<defs>
<radialGradient id="radial0" gradientUnits="userSpaceOnUse" cx="450.908936" cy="189.579361" fx="450.908936" fy="189.579361" r="21.166656" gradientTransform="matrix(0.00000139336,-0.62506,-1.125108,-0.000000812309,422.337378,508.762635)">
<stop offset="0" style="stop-color:rgb(0%,0%,0%);stop-opacity:0.313725;"/>
<stop offset="0.222222" style="stop-color:rgb(0%,0%,0%);stop-opacity:0.27451;"/>
<stop offset="1" style="stop-color:rgb(0%,0%,0%);stop-opacity:0;"/>
</radialGradient>
<radialGradient id="radial1" gradientUnits="userSpaceOnUse" cx="450.908936" cy="189.579361" fx="450.908936" fy="189.579361" r="21.166656" gradientTransform="matrix(-0.00000139336,0.62506,1.125108,0.000000812309,-94.222712,-60.219856)">
<stop offset="0" style="stop-color:rgb(0%,0%,0%);stop-opacity:0.313725;"/>
<stop offset="0.222222" style="stop-color:rgb(0%,0%,0%);stop-opacity:0.27451;"/>
<stop offset="1" style="stop-color:rgb(0%,0%,0%);stop-opacity:0;"/>
</radialGradient>
<radialGradient id="radial2" gradientUnits="userSpaceOnUse" cx="450.908936" cy="189.579361" fx="450.908936" fy="189.579361" r="21.166656" gradientTransform="matrix(-0.00000139336,-0.62506,1.125108,-0.000000812309,-94.222712,508.762635)">
<stop offset="0" style="stop-color:rgb(0%,0%,0%);stop-opacity:0.313725;"/>
<stop offset="0.222222" style="stop-color:rgb(0%,0%,0%);stop-opacity:0.27451;"/>
<stop offset="1" style="stop-color:rgb(0%,0%,0%);stop-opacity:0;"/>
</radialGradient>
<radialGradient id="radial3" gradientUnits="userSpaceOnUse" cx="450.908936" cy="189.579361" fx="450.908936" fy="189.579361" r="21.166656" gradientTransform="matrix(0.00000139336,0.62506,-1.125108,0.000000812309,422.337363,-60.21986)">
<stop offset="0" style="stop-color:rgb(0%,0%,0%);stop-opacity:0.313725;"/>
<stop offset="0.222222" style="stop-color:rgb(0%,0%,0%);stop-opacity:0.27451;"/>
<stop offset="1" style="stop-color:rgb(0%,0%,0%);stop-opacity:0;"/>
</radialGradient>
<linearGradient id="linear0" gradientUnits="userSpaceOnUse" x1="255.323059" y1="233.5" x2="255.323044" y2="254.666656" gradientTransform="matrix(0.10688,0,0,0.500048,107.661342,107.510269)">
<stop offset="0" style="stop-color:rgb(0%,0%,0%);stop-opacity:0.27451;"/>
<stop offset="1" style="stop-color:rgb(0%,0%,0%);stop-opacity:0;"/>
</linearGradient>
<linearGradient id="linear1" gradientUnits="userSpaceOnUse" x1="254" y1="-168.666672" x2="254" y2="233.5" >
<stop offset="0" style="stop-color:rgb(56.470588%,64.313725%,68.235294%);stop-opacity:1;"/>
<stop offset="1" style="stop-color:rgb(47.058824%,56.470588%,61.176471%);stop-opacity:1;"/>
</linearGradient>
<linearGradient id="linear2" gradientUnits="userSpaceOnUse" x1="190.5" y1="148.833328" x2="190.5" y2="-84" >
<stop offset="0" style="stop-color:rgb(100%,79.215686%,15.686275%);stop-opacity:1;"/>
<stop offset="1" style="stop-color:rgb(100%,83.529412%,30.980392%);stop-opacity:1;"/>
</linearGradient>
<linearGradient id="linear3" gradientUnits="userSpaceOnUse" x1="381" y1="233.5" x2="381" y2="85.333336" >
<stop offset="0" style="stop-color:rgb(100%,65.490196%,14.901961%);stop-opacity:1;"/>
<stop offset="1" style="stop-color:rgb(100%,71.764706%,30.196078%);stop-opacity:1;"/>
</linearGradient>
<linearGradient id="linear4" gradientUnits="userSpaceOnUse" x1="423.333344" y1="233.5" x2="423.333344" y2="43" >
<stop offset="0" style="stop-color:rgb(40%,73.333333%,41.568627%);stop-opacity:1;"/>
<stop offset="1" style="stop-color:rgb(50.588235%,78.039216%,51.764706%);stop-opacity:1;"/>
</linearGradient>
<linearGradient id="linear5" gradientUnits="userSpaceOnUse" x1="338.666656" y1="233.5" x2="338.666656" y2="127.666656" >
<stop offset="0" style="stop-color:rgb(93.72549%,32.54902%,31.372549%);stop-opacity:1;"/>
<stop offset="1" style="stop-color:rgb(89.803922%,45.098039%,45.098039%);stop-opacity:1;"/>
</linearGradient>
</defs>
<g id="surface1">
<path style=" stroke:none;fill-rule:nonzero;fill:url(#radial0);" d="M 211.6875 224.269531 L 232.855469 224.269531 L 232.855469 213.6875 L 211.6875 213.6875 Z M 211.6875 224.269531 "/>
<path style=" stroke:none;fill-rule:nonzero;fill:url(#radial1);" d="M 116.429688 224.269531 L 95.257812 224.269531 L 95.257812 234.855469 L 116.429688 234.855469 Z M 116.429688 224.269531 "/>
<path style=" stroke:none;fill-rule:nonzero;fill:url(#radial2);" d="M 116.429688 224.269531 L 95.257812 224.269531 L 95.257812 213.6875 L 116.429688 213.6875 Z M 116.429688 224.269531 "/>
<path style=" stroke:none;fill-rule:nonzero;fill:url(#radial3);" d="M 211.6875 224.269531 L 232.855469 224.269531 L 232.855469 234.855469 L 211.6875 234.855469 Z M 211.6875 224.269531 "/>
<path style=" stroke:none;fill-rule:nonzero;fill:url(#linear0);" d="M 116.429688 221.625 L 211.6875 221.625 L 211.6875 234.855469 L 116.429688 234.855469 Z M 116.429688 221.625 "/>
<path style="fill-rule:nonzero;fill:url(#linear1);stroke-width:3;stroke-linecap:round;stroke-linejoin:miter;stroke:rgb(20%,20%,20%);stroke-opacity:1;stroke-miterlimit:4;" d="M 253.999182 -168.668487 C 365.058889 -168.668487 455.081542 -78.638022 455.081542 32.413873 C 455.081542 143.47358 365.058889 233.496233 253.999182 233.496233 C 142.947287 233.496233 52.916822 143.47358 52.916822 32.413873 C 52.916822 -78.638022 142.947287 -168.668487 253.999182 -168.668487 Z M 253.999182 -168.668487 " transform="matrix(0.500048,0,0,0.500048,0,107.510266)"/>
<path style=" stroke:none;fill-rule:nonzero;fill:rgb(0%,0%,0%);fill-opacity:0.196078;" d="M 127.011719 224.269531 C 71.308594 224.269531 26.460938 179.425781 26.460938 123.71875 C 26.460938 123.390625 26.464844 123.0625 26.46875 122.734375 C 26.992188 177.984375 71.636719 222.300781 127.011719 222.300781 C 182.390625 222.300781 227.03125 177.984375 227.558594 122.734375 C 227.558594 123.0625 227.5625 123.390625 227.5625 123.71875 C 227.5625 179.425781 182.71875 224.269531 127.011719 224.269531 Z M 127.011719 224.269531 "/>
<path style=" stroke:none;fill-rule:nonzero;fill:rgb(100%,100%,100%);fill-opacity:0.392157;" d="M 127.011719 23.167969 C 71.308594 23.167969 26.460938 68.015625 26.460938 123.71875 C 26.460938 124.046875 26.464844 124.375 26.46875 124.703125 C 26.992188 69.457031 71.636719 25.136719 127.011719 25.136719 C 182.390625 25.136719 227.03125 69.457031 227.558594 124.703125 C 227.558594 124.375 227.5625 124.046875 227.5625 123.71875 C 227.5625 68.015625 182.71875 23.167969 127.011719 23.167969 Z M 127.011719 23.167969 "/>
<path style=" stroke:none;fill-rule:nonzero;fill:rgb(12.941177%,12.941177%,12.941177%);fill-opacity:1;" d="M 127.011719 22.417969 C 70.902344 22.417969 25.710938 67.613281 25.710938 123.71875 C 25.710938 179.828125 70.902344 225.023438 127.011719 225.023438 C 183.121094 225.023438 228.3125 179.828125 228.3125 123.71875 C 228.3125 67.613281 183.121094 22.417969 127.011719 22.417969 Z M 127.011719 23.917969 C 182.316406 23.917969 226.8125 68.417969 226.8125 123.71875 C 226.8125 179.023438 182.316406 223.519531 127.011719 223.519531 C 71.710938 223.519531 27.210938 179.023438 27.210938 123.71875 C 27.210938 68.417969 71.710938 23.917969 127.011719 23.917969 Z M 127.011719 23.917969 "/>
<path style="fill-rule:evenodd;fill:url(#linear2);stroke-width:3;stroke-linecap:butt;stroke-linejoin:miter;stroke:rgb(0%,0%,0%);stroke-opacity:1;stroke-miterlimit:4;" d="M 190.497433 148.832443 L 328.085857 21.836758 L 264.584108 21.836758 L 317.50093 -83.996885 L 179.920318 42.9988 L 243.414255 42.9988 Z M 190.497433 148.832443 " transform="matrix(0.500048,0,0,0.500048,0,107.510266)"/>
<path style="fill-rule:nonzero;fill:url(#linear3);stroke-width:3;stroke-linecap:round;stroke-linejoin:round;stroke:rgb(12.941177%,12.941177%,12.941177%);stroke-opacity:1;stroke-miterlimit:4;" d="M 370.417752 85.330695 L 391.579793 85.330695 C 397.430797 85.330695 402.16472 90.07243 402.16472 95.915622 L 402.16472 222.919118 C 402.16472 228.76231 397.430797 233.496233 391.579793 233.496233 L 370.417752 233.496233 C 364.57456 233.496233 359.832825 228.76231 359.832825 222.919118 L 359.832825 95.915622 C 359.832825 90.07243 364.57456 85.330695 370.417752 85.330695 Z M 370.417752 85.330695 " transform="matrix(0.500048,0,0,0.500048,0,107.510266)"/>
<path style="fill-rule:nonzero;fill:url(#linear4);stroke-width:3;stroke-linecap:round;stroke-linejoin:round;stroke:rgb(12.941177%,12.941177%,12.941177%);stroke-opacity:1;stroke-miterlimit:4;" d="M 412.749647 42.9988 L 433.9195 42.9988 C 439.762692 42.9988 444.496615 47.740535 444.496615 53.583727 L 444.496615 222.919118 C 444.496615 228.76231 439.762692 233.496233 433.9195 233.496233 L 412.749647 233.496233 C 406.906455 233.496233 402.16472 228.76231 402.16472 222.919118 L 402.16472 53.583727 C 402.16472 47.740535 406.906455 42.9988 412.749647 42.9988 Z M 412.749647 42.9988 " transform="matrix(0.500048,0,0,0.500048,0,107.510266)"/>
<path style="fill-rule:nonzero;fill:url(#linear5);stroke-width:3;stroke-linecap:round;stroke-linejoin:round;stroke:rgb(12.941177%,12.941177%,12.941177%);stroke-opacity:1;stroke-miterlimit:4;" d="M 328.085857 127.670402 L 349.247898 127.670402 C 355.098902 127.670402 359.832825 132.404325 359.832825 138.247517 L 359.832825 222.919118 C 359.832825 228.76231 355.098902 233.496233 349.247898 233.496233 L 328.085857 233.496233 C 322.234853 233.496233 317.50093 228.76231 317.50093 222.919118 L 317.50093 138.247517 C 317.50093 132.404325 322.234853 127.670402 328.085857 127.670402 Z M 328.085857 127.670402 " transform="matrix(0.500048,0,0,0.500048,0,107.510266)"/>
</g>
</svg>

<svg xmlns="http://www.w3.org/2000/svg" width="256pt" height="256pt" viewBox="0 0 256 256"><defs><radialGradient id="a" gradientUnits="userSpaceOnUse" cx="450.909" cy="189.579" fx="450.909" fy="189.579" r="21.167" gradientTransform="matrix(0 -.62506 -1.1251 0 422.337 508.763)"><stop offset="0" stop-opacity=".314"/><stop offset=".222" stop-opacity=".275"/><stop offset="1" stop-opacity="0"/></radialGradient><radialGradient id="b" gradientUnits="userSpaceOnUse" cx="450.909" cy="189.579" fx="450.909" fy="189.579" r="21.167" gradientTransform="matrix(0 .62506 1.1251 0 -94.223 -60.22)"><stop offset="0" stop-opacity=".314"/><stop offset=".222" stop-opacity=".275"/><stop offset="1" stop-opacity="0"/></radialGradient><radialGradient id="c" gradientUnits="userSpaceOnUse" cx="450.909" cy="189.579" fx="450.909" fy="189.579" r="21.167" gradientTransform="matrix(0 -.62506 1.1251 0 -94.223 508.763)"><stop offset="0" stop-opacity=".314"/><stop offset=".222" stop-opacity=".275"/><stop offset="1" stop-opacity="0"/></radialGradient><radialGradient id="d" gradientUnits="userSpaceOnUse" cx="450.909" cy="189.579" fx="450.909" fy="189.579" r="21.167" gradientTransform="matrix(0 .62506 -1.1251 0 422.337 -60.22)"><stop offset="0" stop-opacity=".314"/><stop offset=".222" stop-opacity=".275"/><stop offset="1" stop-opacity="0"/></radialGradient><linearGradient id="e" gradientUnits="userSpaceOnUse" x1="255.323" y1="233.5" x2="255.323" y2="254.667" gradientTransform="matrix(.10688 0 0 .50005 107.661 107.51)"><stop offset="0" stop-opacity=".275"/><stop offset="1" stop-opacity="0"/></linearGradient><linearGradient id="f" gradientUnits="userSpaceOnUse" x1="254" y1="-168.667" x2="254" y2="233.5"><stop offset="0" stop-color="#90a4ae"/><stop offset="1" stop-color="#78909c"/></linearGradient><linearGradient id="g" gradientUnits="userSpaceOnUse" x1="190.5" y1="148.833" x2="190.5" y2="-84"><stop offset="0" stop-color="#ffca28"/><stop offset="1" stop-color="#ffd54f"/></linearGradient><linearGradient id="h" gradientUnits="userSpaceOnUse" x1="381" y1="233.5" x2="381" y2="85.333"><stop offset="0" stop-color="#ffa726"/><stop offset="1" stop-color="#ffb74d"/></linearGradient><linearGradient id="i" gradientUnits="userSpaceOnUse" x1="423.333" y1="233.5" x2="423.333" y2="43"><stop offset="0" stop-color="#66bb6a"/><stop offset="1" stop-color="#81c784"/></linearGradient><linearGradient id="j" gradientUnits="userSpaceOnUse" x1="338.667" y1="233.5" x2="338.667" y2="127.667"><stop offset="0" stop-color="#ef5350"/><stop offset="1" stop-color="#e57373"/></linearGradient></defs><path d="M211.688 224.27h21.167v-10.583h-21.167zm0 0" fill="url(#a)"/><path d="M116.43 224.27H95.258v10.585h21.172zm0 0" fill="url(#b)"/><path d="M116.43 224.27H95.258v-10.583h21.172zm0 0" fill="url(#c)"/><path d="M211.688 224.27h21.167v10.585h-21.167zm0 0" fill="url(#d)"/><path d="M116.43 221.625h95.257v13.23H116.43zm0 0" fill="url(#e)"/><path d="M254-168.668c111.059 0 201.082 90.03 201.082 201.082 0 111.06-90.023 201.082-201.083 201.082-111.052 0-201.082-90.022-201.082-201.082 0-111.052 90.03-201.082 201.082-201.082zm0 0" transform="matrix(.50005 0 0 .50005 0 107.51)" fill="url(#f)" stroke-width="3" stroke-linecap="round" stroke="#333"/><path d="M127.012 224.27c-55.703 0-100.551-44.844-100.551-100.551 0-.328.004-.656.008-.985.523 55.25 45.168 99.567 100.543 99.567 55.379 0 100.02-44.317 100.547-99.567 0 .329.004.657.004.985 0 55.707-44.844 100.55-100.551 100.55zm0 0" fill-opacity=".196"/><path d="M127.012 23.168c-55.703 0-100.551 44.848-100.551 100.55 0 .329.004.657.008.985.523-55.246 45.168-99.566 100.543-99.566 55.379 0 100.02 44.32 100.547 99.566 0-.328.004-.656.004-.984 0-55.703-44.844-100.551-100.551-100.551zm0 0" fill="#fff" fill-opacity=".392"/><path d="M127.012 22.418c-56.11 0-101.301 45.195-101.301 101.3 0 56.11 45.191 101.305 101.3 101.305 56.11 0 101.302-45.195 101.302-101.304 0-56.106-45.192-101.301-101.301-101.301zm0 1.5c55.304 0 99.8 44.5 99.8 99.8 0 55.305-44.496 99.802-99.8 99.802-55.301 0-99.801-44.497-99.801-99.801 0-55.301 44.5-99.801 99.8-99.801zm0 0" fill="#212121"/><path d="M190.497 148.832L328.086 21.837h-63.502l52.917-105.834L179.92 43h63.493zm0 0" transform="matrix(.50005 0 0 .50005 0 107.51)" fill-rule="evenodd" fill="url(#g)" stroke-width="3" stroke="#000"/><path d="M370.418 85.33h21.162c5.85 0 10.585 4.742 10.585 10.586v127.003c0 5.843-4.734 10.577-10.585 10.577h-21.162c-5.843 0-10.585-4.734-10.585-10.577V95.916c0-5.844 4.742-10.585 10.585-10.585zm0 0" transform="matrix(.50005 0 0 .50005 0 107.51)" fill="url(#h)" stroke-width="3" stroke-linecap="round" stroke-linejoin="round" stroke="#212121"/><path d="M412.75 42.999h21.17c5.843 0 10.577 4.742 10.577 10.585v169.335c0 5.843-4.734 10.577-10.577 10.577h-21.17c-5.844 0-10.585-4.734-10.585-10.577V53.584c0-5.843 4.741-10.585 10.585-10.585zm0 0" transform="matrix(.50005 0 0 .50005 0 107.51)" fill="url(#i)" stroke-width="3" stroke-linecap="round" stroke-linejoin="round" stroke="#212121"/><path d="M328.086 127.67h21.162c5.85 0 10.585 4.734 10.585 10.578v84.671c0 5.843-4.734 10.577-10.585 10.577h-21.162c-5.851 0-10.585-4.734-10.585-10.577v-84.671c0-5.844 4.734-10.578 10.585-10.578zm0 0" transform="matrix(.50005 0 0 .50005 0 107.51)" fill="url(#j)" stroke-width="3" stroke-linecap="round" stroke-linejoin="round" stroke="#212121"/></svg>
